X:293
T:Sleepy Maggie
R:Reel
O:Ireland, Scotland
B:O'Neill's 1424
B:Kerr's Fourth p19
S:My arrangement from various sources
Z:Transcription, arrangement, chords:Mike Long
M:C|
L:1/8
K:A
"Bm"f2de fBde|"Bm"~f2 df "A"eAce|"Bm"fB ~B2 fBde|"D"fgaf  "A"eAce:|\
"Bm"fBdB fBde|"Bm"fB ~B2 "A"eAce|
"Bm"fBdB fBde|"D"fgaf "A"eAce|\
"Bm"fBdB fBde|"Bm"fB ~B2 "A"eAce|"Bm"dcBc "D"defg|"A"abaf eAce|]
|:"Bm"fBbB fBde|"Bm"fBbB "A"aAce|"Bm"fBbB aBgB|[1 "F#m"fBgB "A"aAce:|[2 "D"fgaf "A"eAce|]
